X:62
T:Tarbolton Lodge
S:Bernie Waugh
R:Reel
M:4/4
L:1/8
K:Em
|:F|\
"Em"Eee^d e2BA|GBAF GEEF|"D"Ddd^c d2AF|GBAG FDDF|
"C"Eee^d efga|"Bm"fedf "Em"eBBA|"G"GABG "D"FGAG|"C"BGAF "Em"GEE:|
|:f|\
"Em"gfef gebe|gebe geef|"D"defg adfd|ABAG FDDF|
"C"G2BG "Bm"F2AF|"Em"Eeef gefd|"G"B^cdB "D"AGFA|"C"BGAF "Em"GEE:|

